X: 4
T: The Green Fields Of Glentown
R: reel
M: 4/4
L: 1/8
K: Ador
|:G|~A2EA cA~A2|aged bage|dB~B2 GABd|gfdc Bgfg|eA~A2 fedB|AE~E2 DG,B,G,|A,E~E2 ~E2DE|GEDB, B,A,A,:|


Tune 671	Setting 21457

